X: 1
T: Paddy Be Aisy
C: Trad
R: Slip Jig
L: 1/8
M: 9/8
K: Amix
r: 16
Z: ABC transcription by Verge Roller
|: "A" A3 edB "G" efg | "A" A3 edB "D" d2 B | "A" A3 edB "G" efg | [1 "D" fed "G" edB "A" d2 B :| [2 "D" fed "G" edB "A" d2 e |]
|: "D" fef "A" afd "G" efg | "D" fef "A" afd "G" g3 | "D" fef "A" afd "G" efg | [1 "D" fed "G" edB "A" d2 e :| [2 "D" fed "G" edB "A" d2 B |]
